!!!OTL-incipit: O STRASBURG O STRASBURG DU WUNDERSCHOENE STADT
!!!ARE: Europa, Mitteleuropa, Deutschland, Rheinland
!!!SCT: Z0001
!!!TXL: @@DE
!!!YEM: Copyright 1995, estate of Helmut Schaffrath.
**kern	**text
*ICvox	*
*M4/4	*
*met(c)	*
*k[f#]	*
*G:	*
!LO:TX:a:t=Rheinländiſch.	!
{4g	O
=1	=1
2g	Stras-
8bL	-burg,
8aJ	.
4g	o
=2	=2
2a	Stras-
8cc/L	-burg,
8bJ}	.
{4a	du
=3	=3
4b	wun-
4dd	-der-
4cc	-ſchö-
4b	-ne
=4	=4
2.a}	Stadt,
{4g	O
=5	=5
2g	Stras-
8bL	-burg,
8aJ	.
4g	o
=6	=6
2a	Stras-
8cc/L	-burg,
8bJ}	.
{4a	du
=7	=7
4b	wun-
4dd	-der-
4cc	-ſchö-
4b	-ne
=8	=8
2.a}	Stadt!
{4b	dar-
=9	=9
4cc	-in-
4ee	-nen
4ee	liegt
4ee	be-
=10	=10
2dd	-gra-
4b}	-ben
{8bL	manch
8ddJ	.
=11	=11
8ddL	wa-
8ccJ	.
4cc	-cke-
4a	-rer
4a	Sol-
=12	=12
8b/L	.
8a	-da-
8b	.
8ccJ	.
4dd}	-t,
{4g	dar-
=13	=13
8ccL	-in-
8eeJ	.
4ee	-nen
4ee	liegt
4ee	be-
=14	=14
2dd	-gra-
4b}	-ben
{8bL	manch
8ddJ	.
=15	=15
8ddL	wa-
8ccJ	.
4cc	-cke-
4a	-rer
4a	Sol-
=16	=16
2.g}	-dat.
==	==
!!!AGN: Sagen - Lied, Romanze
!!!ONB: ESAC (Essen Associative Code) Database: ZUCCAL
!!!AMT: simple quadruple
!!!AIN: vox
!!!EED: Helmut Schaffrath
!!!EEV: 1.0
!!!GTL: I. Ernste Romanzen und Sagen.
!!!URL-scan: https://www.digitale-sammlungen.de/de/view/bsb11160571?page=19
!!!ENC: Anna Maria Matuszewska
!!!EEV: 2025/01/22
*-	*-
